dist/svg/feedback-like.svg

<!-- Generated by Trend Micro Style Portal -->
<svg version="1.1" xmlns="http://www.w3.org/2000/svg" width="16" height="16" viewBox="0 0 16 16">
  <title>feedback-like</title>
  <path fill="rgb(34,34,34)" d="M14.359 5.965h-4.052c0.426-1.075 0.679-2.319 0.693-3.62l0-0.006c0-1.631-0.275-2.338-1.038-2.338-1.051 0-1.178 0.991-1.291 1.731-0.126 0.764-0.36 1.449-0.691 2.077l0.018-0.037c-0.582 1.011-1.355 1.849-2.275 2.489l-0.025 0.016c-0.014 0.011-0.021 0.021-0.034 0.032-0.034 0.026-0.070 0.049-0.102 0.078-0.346 0.319-0.562 0.775-0.562 1.281 0 0.003 0 0.007 0 0.010v-0 6.61c-0 0.010-0 0.023-0 0.035 0 0.914 0.731 1.657 1.639 1.678l0.002 0h6.214c1.313-0.025 2.382-1.035 2.501-2.32l0.001-0.010 0.633-5.798c0.009-0.066 0.014-0.142 0.014-0.22 0-0.917-0.731-1.663-1.643-1.687l-0.002-0zM3 7h-2c-0.552 0-1 0.448-1 1v0 7c0 0.552 0.448 1 1 1v0h2c0.552 0 1-0.448 1-1v0-7c0-0.552-0.448-1-1-1v0z"></path>
</svg>

<svg width="16" height="16" viewBox="0 0 16 16" fill="rgb(34, 34, 34)" xmlns="http://www.w3.org/2000/svg"><title>feedback-like</title><path d="M14.359 5.965H10.307C10.733 4.89 10.986 3.646 11 2.345V2.339C11 0.707999 10.725 0.000999451 9.962 0.000999451C8.911 0.000999451 8.784 0.991999 8.671 1.732C8.545 2.496 8.311 3.181 7.98 3.809L7.998 3.772C7.416 4.783 6.643 5.621 5.723 6.261L5.698 6.277C5.684 6.288 5.677 6.298 5.664 6.309C5.63 6.335 5.594 6.358 5.562 6.387C5.216 6.706 5 7.162 5 7.668C5 7.671 5 7.675 5 7.678V14.288C5 14.298 5 14.311 5 14.323C5 15.237 5.731 15.98 6.639 16.001H6.641H12.855C14.168 15.976 15.237 14.966 15.356 13.681L15.357 13.671L15.99 7.873C15.999 7.807 16.004 7.731 16.004 7.653C16.004 6.736 15.273 5.99 14.361 5.966L14.359 5.965ZM3 7H1C0.448 7 0 7.448 0 8V15C0 15.552 0.448 16 1 16H3C3.552 16 4 15.552 4 15V8C4 7.448 3.552 7 3 7Z" fill="rgb(34, 34, 34)" fill-opacity="1.00"/></svg>
